X: 11111
T: Duke Of Edinburgh, The
R: strathspey
M: 4/4
K: Amixolydian
|:A2 e>A c2 B>c|A2 a>e f>e c<e|d>ef>d c>ea>e|B>Ac>A d>BG>B|
A2 e>A c2 B>c|A2 a>e f>e c<e|d>ef>d c>ea>f|e>cB<c A2 A2:|
|:c<ee>A c<ef>e|c<ea>e f>ec>e|c<ee>A c<ef>e|B>Ac>A d>BG>B|
c<ee>A c<ef>e|c<ea>e f>ec>e|d>ef>d c>ea>f|e>cB<c A2 A2:|

